X: 25993
T: Mayo Fling, The
R: hornpipe
M: 4/4
K: Dmajor
|:A>FD>F E>FD>F|A4 A4|A>FD>F E>FD>A|B3A B4|
{Bc}d3c (3Bcd B>A|(3FGA F>E E>DB2|D>EF>A B>AF>E|D4D4:|
|:(3aba f>e (3fed A2|(3Bcd B>A F>ED2|(3EDE (3FEF A>FE>D|B3A B4|
(3aba f>e (3fed A2|(3Bcd B>A F>ED2|(3EDE (3FGA B>AF>E|D4 D4:|

